DcamVisualizer/Assets/Main/CameraLUT.cube
TITLE "Generated by Resolve"
LUT_3D_SIZE 17
0 0 0
0.011017 0.00225834 0.0043183
0.0212558 0.00500496 0.00967422
0.031754 0.0075227 0.0145418
0.0450752 0.0100252 0.0193484
0.0629892 0.0125277 0.0241245
0.088365 0.0146944 0.0281987
0.119005 0.0168307 0.032105
0.152895 0.0192416 0.0363622
0.18912 0.0220951 0.0413672
0.226459 0.0258488 0.0480049
0.262684 0.0304875 0.0562142
0.297353 0.0359503 0.0660563
0.332982 0.0420691 0.0768749
0.370153 0.0484169 0.087892
0.409812 0.0550088 0.098024
0.453635 0.0618296 0.107515
0 0.0213169 0.0152132
0.00328069 0.023621 0.0196231
0.0135805 0.0259403 0.0240787
0.0244602 0.0283513 0.0287327
0.0383307 0.0307317 0.0332799
0.0568246 0.033051 0.0376593
0.0830549 0.0353094 0.0418555
0.115282 0.0374304 0.045716
0.150408 0.0398566 0.0499886
0.187716 0.0429694 0.0554513
0.225818 0.0468299 0.0622568
0.262959 0.051667 0.0708629
0.301015 0.0576638 0.0812543
0.339651 0.0642863 0.0915541
0.379751 0.0715038 0.101595
0.4224 0.0791638 0.111131
0.46891 0.0870222 0.119707
0 0.0417792 0.0298924
0 0.0437629 0.0338445
0.00640879 0.0460517 0.0381933
0.017792 0.0482032 0.0425422
0.0322271 0.0507362 0.0471962
0.0514534 0.0532235 0.0518807
0.078233 0.0555123 0.0561227
0.112383 0.0578164 0.0603037
0.148943 0.0607156 0.0652781
0.187335 0.0640421 0.0711833
0.226444 0.0682536 0.0786908
0.266728 0.07393 0.0881666
0.308263 0.0807965 0.0977035
0.350469 0.0887465 0.107546
0.393957 0.0966506 0.117021
0.440009 0.104524 0.125841
0.49102 0.11249 0.134234
0 0.063386 0.0443732
0 0.0657816 0.0485389
0 0.0682689 0.0528725
0.00994888 0.0710613 0.0576791
0.0249943 0.0739452 0.0626993
0.0448463 0.0767529 0.067689
0.0727245 0.0794232 0.0726024
0.109056 0.0821088 0.077409
0.147433 0.0848402 0.0831311
0.187503 0.0881819 0.0897841
0.229725 0.0927138 0.0974594
0.27422 0.0987106 0.106065
0.320089 0.106004 0.115404
0.3664 0.114 0.124804
0.414343 0.122255 0.133791
0.46656 0.131014 0.14255
0.525826 0.13959 0.149828
0 0.0906081 0.0599069
0 0.0931563 0.0642557
0 0.0961013 0.069276
0 0.0991684 0.0745861
0.0147555 0.102327 0.0802777
0.0354162 0.105547 0.0865034
0.0643626 0.108248 0.0918441
0.103319 0.11078 0.0972457
0.144717 0.113588 0.103212
0.18912 0.117342 0.10985
0.236866 0.122438 0.117388
0.287068 0.129183 0.125917
0.339269 0.13727 0.134783
0.393561 0.14612 0.143297
0.451667 0.156008 0.151797
0.514458 0.165927 0.159197
0.585061 0.175921 0.164965
0 0.120195 0.0762036
0 0.123125 0.0817731
0 0.126207 0.0872969
0 0.129656 0.0933089
0.000106813 0.133394 0.099794
0.0213626 0.136889 0.105943
0.0519875 0.140383 0.112032
0.0956436 0.143969 0.117952
0.144167 0.148104 0.124132
0.196201 0.153399 0.130785
0.252171 0.160021 0.137881
0.311788 0.168292 0.1458
0.37406 0.177996 0.153887
0.438407 0.188754 0.161593
0.506508 0.200031 0.168215
0.580774 0.211551 0.173281
0.660609 0.222385 0.176394
0 0.152956 0.0933394
0 0.156222 0.09897
0 0.160204 0.105272
0 0.164752 0.111986
0 0.169665 0.118715
0.00328069 0.17528 0.125811
0.0383612 0.180697 0.131838
0.0906233 0.186374 0.137728
0.150271 0.193027 0.144106
0.212085 0.200275 0.150332
0.278309 0.208972 0.156939
0.348501 0.219226 0.163622
0.421485 0.230701 0.169696
0.497261 0.243214 0.174685
0.576532 0.256123 0.178408
0.659266 0.268559 0.180194
0.746548 0.279866 0.179843
0 0.191928 0.109926
0 0.197131 0.116426
0 0.203204 0.12314
0 0.210071 0.129839
0 0.218082 0.137224
0 0.22623 0.144137
0.0260319 0.234363 0.1505
0.0919203 0.242954 0.156573
0.164294 0.251499 0.161837
0.238163 0.261097 0.166888
0.31635 0.272007 0.171481
0.398398 0.284138 0.175036
0.483497 0.297383 0.177569
0.568963 0.311162 0.178912
0.655741 0.324773 0.178546
0.743664 0.337545 0.176837
0.834165 0.348959 0.173663
0 0.2439 0.126497
0 0.252186 0.13315
0 0.261189 0.13994
0 0.271656 0.147295
0 0.282445 0.154269
0 0.293812 0.160845
0.0219883 0.305043 0.166415
0.106798 0.315785 0.170657
0.193973 0.327352 0.174075
0.280415 0.339086 0.175937
0.369909 0.351339 0.176562
0.462715 0.364721 0.176059
0.555291 0.378164 0.173877
0.645701 0.391638 0.170993
0.73521 0.404883 0.167315
0.823896 0.416876 0.162539
0.914961 0.427649 0.157198
0 0.314 0.141268
0 0.325551 0.147433
0 0.338384 0.15375
0 0.352056 0.159747
0 0.366796 0.165316
0 0.381567 0.169787
0.0429847 0.395422 0.172747
0.147539 0.408988 0.174304
0.241993 0.4215 0.173922
0.336156 0.433677 0.171664
0.433066 0.446052 0.167895
0.52958 0.457725 0.162753
0.624216 0.469627 0.156802
0.715816 0.481941 0.150607
0.804929 0.493629 0.144686
0.894423 0.504616 0.139681
0.986374 0.514702 0.135927
0 0.405295 0.148135
0 0.420493 0.152361
0 0.436622 0.156374
0 0.453864 0.159945
0 0.471214 0.162554
0 0.487831 0.163973
0.101823 0.503532 0.163973
0.202411 0.516808 0.161913
0.297154 0.528679 0.157992
0.392935 0.539376 0.152285
0.490272 0.548852 0.144747
0.58819 0.558541 0.136522
0.683925 0.568383 0.128786
0.775448 0.578531 0.12253
0.865263 0.588998 0.118318
0.953887 0.598398 0.116213
1 0.606546 0.116381
0 0.514092 0.140398
0 0.531548 0.141939
0 0.549889 0.143267
0 0.568109 0.144091
0 0.585885 0.144198
0.0628367 0.602991 0.143236
0.163363 0.617487 0.140581
0.255222 0.629953 0.13637
0.347677 0.639811 0.13051
0.443168 0.64799 0.123262
0.542367 0.655436 0.115251
0.640803 0.662348 0.107362
0.736721 0.669505 0.101244
0.828351 0.677714 0.0982376
0.916014 0.68571 0.098497
1 0.692897 0.101884
1 0.699351 0.108904
0 0.629999 0.118471
0 0.648066 0.11783
0 0.666407 0.117418
0 0.685084 0.117281
0.0540322 0.702525 0.117006
0.143847 0.718456 0.116381
0.227039 0.732204 0.114702
0.311192 0.742428 0.111238
0.400229 0.750118 0.106371
0.494774 0.756085 0.10074
0.592554 0.76025 0.0946059
0.690303 0.764279 0.0899977
0.785016 0.768902 0.0885634
0.874464 0.774014 0.0912032
0.959884 0.7794 0.0977188
1 0.784436 0.107866
1 0.788083 0.120394
0 0.74696 0.0923781
0 0.764706 0.0930953
0.0197757 0.782971 0.0950484
0.0903944 0.800137 0.0976883
0.160189 0.816205 0.100786
0.226474 0.830945 0.103944
0.295415 0.84213 0.105333
0.371725 0.85008 0.104952
0.455711 0.855497 0.103471
0.54612 0.858167 0.100694
0.642054 0.859648 0.09897
0.736965 0.860395 0.0986191
0.829023 0.861799 0.102174
0.915908 0.864286 0.110262
0.998215 0.866896 0.121401
1 0.869245 0.13463
1 0.871107 0.149187
0.0198672 0.862013 0.0837262
0.0946365 0.878614 0.0896315
0.153658 0.894514 0.0967422
0.20209 0.909987 0.104692
0.251041 0.924254 0.112825
0.303304 0.936126 0.119539
0.363043 0.945327 0.124819
0.431556 0.950652 0.127382
0.509239 0.952819 0.12813
0.594919 0.953063 0.128618
0.686076 0.950988 0.129015
0.778271 0.948943 0.13167
0.867948 0.947936 0.137591
0.952834 0.947921 0.146548
1 0.94876 0.157641
1 0.949935 0.170794
1 0.950301 0.184619
0.168811 0.97142 0.110536
0.215335 0.985351 0.12076
0.254948 0.999405 0.132158
0.291218 1 0.14316
0.330282 1 0.153094
0.374624 1 0.161776
0.426276 1 0.1673
0.488228 1 0.169818
0.560433 1 0.171008
0.641672 1 0.17055
0.729427 1 0.170993
0.819608 1 0.173663
0.90753 1 0.178775
0.991226 1 0.187594
1 1 0.198032
1 1 0.210224
1 1 0.223606
0.277394 1 0.163439
0.313619 1 0.174075
0.345983 1 0.184405
0.376577 1 0.193912
0.409812 1 0.202777
0.447837 1 0.209537
0.492927 1 0.213703
0.548592 1 0.215457
0.614328 1 0.215045
0.690501 1 0.21445
0.774304 1 0.214435
0.861097 1 0.216449
0.946853 1 0.221851
1 1 0.22948
1 1 0.239399
1 1 0.250523
1 1 0.262028
0 0.000228885 0.0177615
0.00924697 0.00241093 0.0298009
0.0196384 0.00495918 0.035172
0.0301671 0.00750744 0.0403449
0.0435645 0.00996414 0.045304
0.0615244 0.0123445 0.0500496
0.0870527 0.0145876 0.05449
0.117968 0.0166629 0.0585489
0.152056 0.0189822 0.0629129
0.18851 0.0219425 0.0683452
0.22591 0.0256046 0.0749676
0.262272 0.0302129 0.0835737
0.297322 0.0357977 0.0932784
0.33315 0.0418555 0.102983
0.370611 0.0482338 0.112444
0.410773 0.0550088 0.121706
0.454704 0.061677 0.130159
0 0.02121 0.041001
0.00163272 0.0234684 0.0454719
0.0119478 0.0258488 0.0501259
0.0228428 0.0281529 0.0546426
0.0367895 0.030518 0.059266
0.0553445 0.0329137 0.0639353
0.0816205 0.0350805 0.0680858
0.114153 0.0372015 0.0721294
0.14963 0.039704 0.0767834
0.187091 0.04271 0.0825055
0.22536 0.0466011 0.0893416
0.26276 0.0515908 0.097612
0.301137 0.0575265 0.106538
0.340185 0.0642252 0.115694
0.380667 0.0715496 0.124758
0.423499 0.0792096 0.133364
0.470726 0.0872053 0.141527
0 0.0415808 0.0558633
0 0.0436408 0.0600137
0.00476081 0.0459602 0.064332
0.0161593 0.0481575 0.0688182
0.0306706 0.0506142 0.0735027
0.0499123 0.0530098 0.0780957
0.0768597 0.0554055 0.082887
0.11136 0.0577096 0.0871443
0.148135 0.0605325 0.0919051
0.186801 0.0639963 0.097673
0.226078 0.0682689 0.104479
0.266789 0.0739147 0.112459
0.308904 0.0809491 0.121187
0.35137 0.0888991 0.129992
0.395224 0.0968643 0.138674
0.441962 0.104997 0.147127
0.493278 0.112917 0.154894
0 0.0633097 0.070634
0 0.0656138 0.0747234
0 0.0682383 0.0792706
0.00831617 0.070985 0.0842603
0.0233921 0.0738384 0.0891127
0.0433814 0.0768139 0.0940719
0.0713054 0.0794232 0.0985122
0.107942 0.0821393 0.102892
0.146777 0.0849928 0.107958
0.187045 0.0882734 0.11368
0.22977 0.0929427 0.120607
0.274861 0.0991531 0.128588
0.321141 0.106477 0.137118
0.367987 0.114504 0.14583
0.416815 0.123095 0.154513
0.469886 0.131884 0.162676
0.530343 0.140536 0.169696
0 0.090547 0.0864729
0 0.0932631 0.0908675
0 0.0961471 0.0953841
0 0.0992294 0.100221
0.013138 0.102602 0.105516
0.0338445 0.10573 0.110536
0.062974 0.108568 0.115404
0.102327 0.111223 0.120378
0.144198 0.114 0.125612
0.189288 0.118044 0.131884
0.237675 0.123308 0.138933
0.288472 0.130144 0.146807
0.342061 0.13846 0.155291
0.397253 0.147539 0.163546
0.456062 0.157458 0.171695
0.520134 0.167666 0.179004
0.591531 0.1776 0.184634
0 0.12047 0.102022
0 0.123339 0.106523
0 0.126467 0.11133
0 0.130129 0.116838
0 0.133791 0.122393
0.0198672 0.137575 0.128023
0.0509346 0.141176 0.133547
0.0951247 0.144823 0.138903
0.14464 0.149401 0.144976
0.197436 0.154711 0.151232
0.254276 0.161517 0.15816
0.315099 0.170214 0.166033
0.378027 0.179934 0.173724
0.443366 0.190845 0.181247
0.513024 0.202411 0.187869
0.587961 0.213779 0.192844
0.668498 0.224643 0.195956
0 0.153353 0.116884
0 0.156847 0.122042
0 0.160906 0.127581
0 0.16556 0.133608
0 0.170901 0.13994
0.0021973 0.176547 0.146365
0.0379034 0.182147 0.152148
0.0914168 0.188388 0.158206
0.151736 0.194949 0.164126
0.214649 0.202472 0.170291
0.282124 0.211597 0.176883
0.352911 0.221744 0.183246
0.427436 0.233539 0.189349
0.504585 0.246311 0.194415
0.584314 0.258976 0.198154
0.668238 0.271626 0.200351
0.756298 0.282994 0.200549
0 0.193133 0.132311
0 0.198444 0.13814
0 0.204715 0.144213
0 0.212055 0.150683
0 0.220157 0.157595
0 0.228443 0.164309
0.0267796 0.237186 0.170901
0.0938582 0.245624 0.176608
0.167742 0.254734 0.182086
0.242679 0.2645 0.18706
0.321462 0.275257 0.191363
0.405432 0.287984 0.195224
0.491005 0.301152 0.197818
0.577066 0.314702 0.199359
0.665202 0.328573 0.19968
0.753124 0.340993 0.19852
0.843534 0.352239 0.196078
0 0.246098 0.148104
0 0.254704 0.154498
0 0.264118 0.161059
0 0.274586 0.16791
0 0.285771 0.174609
0 0.297337 0.181064
0.0243229 0.308629 0.186557
0.111818 0.319997 0.191058
0.198962 0.331441 0.194369
0.286152 0.343191 0.196323
0.377188 0.355962 0.19736
0.470024 0.368933 0.196963
0.563272 0.382254 0.195392
0.654841 0.395956 0.193362
0.743862 0.408606 0.190372
0.832898 0.420539 0.186587
0.924895 0.431373 0.18265
0 0.317739 0.163073
0 0.329381 0.168872
0 0.342321 0.174838
0 0.356558 0.180728
0 0.371267 0.185855
0 0.386145 0.190311
0.0492561 0.400626 0.193622
0.153826 0.413855 0.195239
0.248386 0.426322 0.195132
0.343618 0.438987 0.19353
0.440162 0.450706 0.190356
0.537438 0.462593 0.186343
0.632609 0.474311 0.181552
0.723629 0.486 0.176547
0.813642 0.497948 0.172168
0.903166 0.508705 0.168719
0.994583 0.518135 0.166384
0 0.409995 0.170382
0 0.425467 0.174548
0 0.442115 0.178622
0 0.459144 0.182055
0 0.476692 0.184771
0.00489815 0.493721 0.186526
0.109514 0.508934 0.18677
0.209125 0.522286 0.185336
0.303685 0.534096 0.182315
0.39913 0.544305 0.177569
0.497307 0.553994 0.17145
0.595148 0.563134 0.16495
0.690852 0.57261 0.158984
0.783215 0.58294 0.154757
0.872389 0.592859 0.152041
0.9608 0.601999 0.151324
1 0.610285 0.152911
0 0.520165 0.164904
0 0.537652 0.166629
0 0.555566 0.168154
0 0.574258 0.169375
0 0.591913 0.169848
0.0708171 0.608515 0.169406
0.17026 0.623362 0.167697
0.261143 0.635187 0.164569
0.353155 0.644862 0.160143
0.449516 0.653239 0.154665
0.548058 0.660029 0.148562
0.646876 0.666621 0.142901
0.743282 0.673945 0.139055
0.834241 0.681529 0.13753
0.922316 0.689372 0.138964
1 0.696498 0.142916
1 0.702281 0.149447
0 0.635966 0.147265
0 0.65391 0.147265
0 0.672709 0.147677
0 0.690745 0.148211
0.0626688 0.708019 0.148714
0.151476 0.72433 0.149065
0.232914 0.737346 0.148211
0.316701 0.747341 0.146151
0.405997 0.755245 0.143114
0.500008 0.760433 0.139071
0.597971 0.764446 0.135119
0.695796 0.768368 0.132479
0.790158 0.772412 0.132052
0.879744 0.777676 0.135454
0.964965 0.782513 0.141344
1 0.787152 0.150179
1 0.790738 0.161654
0 0.753048 0.128527
0 0.770962 0.130083
0.0284733 0.788464 0.13257
0.0995956 0.805737 0.135744
0.167315 0.82182 0.139132
0.232166 0.835752 0.14229
0.300816 0.84715 0.144442
0.377127 0.854856 0.144823
0.460502 0.859464 0.144091
0.55108 0.862364 0.142916
0.646235 0.863066 0.141726
0.741192 0.863569 0.142275
0.83357 0.865019 0.146242
0.91957 0.866896 0.152941
1 0.869245 0.162692
1 0.871687 0.174441
1 0.873091 0.187137
0.0308537 0.867735 0.126207
0.103838 0.883757 0.13164
0.161563 0.899855 0.138506
0.208057 0.914885 0.145525
0.256123 0.928618 0.152483
0.308858 0.940673 0.159182
0.367407 0.949325 0.163821
0.435492 0.954177 0.166278
0.513359 0.956619 0.167544
0.598901 0.955962 0.168093
0.689509 0.953735 0.168811
0.78204 0.951797 0.171923
0.871641 0.950042 0.176837
0.956069 0.950027 0.184695
1 0.950973 0.195026
1 0.951736 0.206531
1 0.952209 0.219379
0.175937 0.976043 0.151873
0.221729 0.990143 0.161303
0.260471 1 0.170886
0.295583 1 0.180529
0.334752 1 0.189715
0.37879 1 0.197192
0.430396 1 0.202258
0.49247 1 0.20499
0.563943 1 0.205768
0.645014 1 0.205982
0.732906 1 0.206607
0.82266 1 0.208774
0.910719 1 0.213977
0.994171 1 0.221683
1 1 0.231327
1 1 0.242802
1 1 0.254673
0.28307 1 0.199466
0.318517 1 0.208774
0.351247 1 0.218418
0.380865 1 0.226825
0.413779 1 0.234653
0.451591 1 0.241093
0.496727 1 0.244923
0.551568 1 0.246372
0.617823 1 0.24654
0.693523 1 0.245991
0.77702 1 0.245975
0.864134 1 0.248386
0.94931 1 0.25301
1 1 0.26006
1 1 0.269535
1 1 0.279606
1 1 0.29015
0 0.000411994 0.0407721
0.00772107 0.00254826 0.0532387
0.0181125 0.00512703 0.0591592
0.0286717 0.00753796 0.0643168
0.0421149 0.0099794 0.0694591
0.0601663 0.0123903 0.0745403
0.0857862 0.0145113 0.078996
0.116976 0.0166018 0.0835279
0.151385 0.018967 0.0881819
0.187915 0.0218357 0.0933242
0.225513 0.0254978 0.0996262
0.262013 0.0301976 0.107179
0.297307 0.0356909 0.115587
0.333562 0.0418097 0.124422
0.371374 0.0483101 0.13315
0.411749 0.0549325 0.141588
0.456077 0.0617533 0.149615
0 0.0212253 0.0649119
7.62951e-05 0.0235447 0.0696574
0.0103914 0.0257877 0.0742199
0.0213321 0.0280919 0.0788434
0.0353246 0.0305333 0.0840925
0.0539406 0.0328222 0.0885634
0.0801099 0.0350652 0.0927901
0.113207 0.0371862 0.0966659
0.148852 0.0395972 0.100862
0.186587 0.0427253 0.106004
0.224979 0.0466011 0.112078
0.262669 0.0515145 0.119371
0.301503 0.0576333 0.127626
0.340887 0.064332 0.135973
0.381613 0.0717021 0.144396
0.425025 0.079469 0.152605
0.472374 0.087541 0.160235
0 0.0415961 0.080415
0 0.0436713 0.0847334
0.00318914 0.0459144 0.0889906
0.0146487 0.0480964 0.0930343
0.0292515 0.0505074 0.0973678
0.0485542 0.0530404 0.101762
0.0756085 0.0553292 0.105699
0.110353 0.0576486 0.109483
0.14757 0.0604562 0.113939
0.186343 0.0639353 0.119234
0.225864 0.0682841 0.125444
0.267124 0.0741283 0.132937
0.309545 0.0813764 0.140871
0.352468 0.0892042 0.149203
0.396933 0.0972763 0.157534
0.443961 0.10544 0.165499
0.495781 0.113527 0.172992
0 0.0632792 0.0946059
0 0.0657054 0.0987106
0 0.0682383 0.102693
0.00675975 0.0710002 0.106981
0.021912 0.0740063 0.111559
0.0419471 0.0769055 0.115923
0.0699779 0.0795148 0.119951
0.107073 0.0824292 0.124102
0.146105 0.0851911 0.12845
0.186755 0.0886549 0.133806
0.230106 0.093431 0.140246
0.275517 0.0996414 0.147723
0.322606 0.10721 0.156008
0.369909 0.115358 0.164279
0.419364 0.123949 0.172519
0.474083 0.133028 0.180545
0.535531 0.141695 0.18732
0 0.0907607 0.109148
0 0.0934005 0.113024
0 0.0963149 0.117235
0 0.0995651 0.12192
0.0115663 0.102861 0.126741
0.0323796 0.106065 0.131548
0.061677 0.109026 0.136202
0.101289 0.11165 0.140597
0.143847 0.114748 0.145571
0.189593 0.118837 0.151232
0.238514 0.124208 0.157671
0.290379 0.131441 0.165423
0.344747 0.139681 0.173312
0.4009 0.148989 0.181491
0.461112 0.159228 0.189715
0.525765 0.169345 0.196811
0.598352 0.17937 0.20264
0 0.12076 0.123308
0 0.123766 0.127718
0 0.12697 0.132357
0 0.130602 0.137591
0 0.134432 0.143191
0.0183108 0.138231 0.14876
0.0496681 0.14197 0.154086
0.0947738 0.145998 0.159442
0.145083 0.150637 0.16495
0.198779 0.1561 0.170657
0.256977 0.163409 0.177584
0.318334 0.172015 0.184909
0.382513 0.182086 0.192584
0.449195 0.193286 0.200183
0.519402 0.2047 0.206729
0.595804 0.216464 0.212177
0.67747 0.227192 0.215885
0 0.154025 0.137362
0 0.157519 0.142199
0 0.161746 0.147753
0 0.16669 0.153948
0 0.172107 0.160433
0.000869764 0.177951 0.166827
0.0374609 0.184009 0.172946
0.092134 0.190295 0.178882
0.153429 0.19704 0.18468
0.217609 0.205051 0.19089
0.285878 0.214038 0.197055
0.35819 0.224765 0.203525
0.433768 0.236622 0.209537
0.511711 0.249241 0.214649
0.593088 0.262379 0.218997
0.677424 0.274739 0.221546
0.765759 0.285954 0.222477
0 0.194354 0.151781
0 0.200061 0.157763
0 0.206592 0.163973
0 0.214069 0.170764
0 0.222553 0.178195
0 0.231159 0.18526
0.0274205 0.239887 0.191867
0.0965133 0.248768 0.197879
0.171054 0.257893 0.20322
0.246891 0.267796 0.208087
0.327337 0.279133 0.212573
0.412161 0.29163 0.21622
0.498634 0.304723 0.219013
0.586343 0.318791 0.221088
0.674174 0.332143 0.221851
0.762783 0.344533 0.221607
0.854124 0.355825 0.220111
0 0.248798 0.167483
0 0.257404 0.173785
0 0.266987 0.180545
0 0.277989 0.188006
0 0.289204 0.195117
0 0.300969 0.201984
0.027512 0.312779 0.207965
0.116396 0.324117 0.212558
0.204349 0.335683 0.215915
0.292821 0.347967 0.218204
0.384161 0.360372 0.219181
0.477806 0.373266 0.218891
0.57229 0.386938 0.217914
0.663417 0.4 0.216297
0.753323 0.41297 0.214221
0.842649 0.424582 0.211429
0.934218 0.434897 0.208652
0 0.321279 0.182116
0 0.333288 0.188067
0 0.346822 0.194476
0 0.360922 0.200565
0 0.37615 0.206485
0 0.391394 0.211612
0.0559091 0.405615 0.215244
0.160662 0.419196 0.217288
0.255573 0.431907 0.217487
0.350591 0.444038 0.215976
0.447852 0.455879 0.213077
0.545098 0.467323 0.209247
0.640284 0.478737 0.204929
0.732158 0.490654 0.200855
0.821881 0.50193 0.197559
0.911299 0.512581 0.195239
1 0.522164 0.194186
0 0.415366 0.190066
0 0.431052 0.194369
0 0.447379 0.198489
0 0.465171 0.202518
0 0.482597 0.205783
0.011429 0.499352 0.208133
0.11809 0.514977 0.209125
0.216052 0.527977 0.208118
0.309987 0.539391 0.205341
0.406104 0.549844 0.201144
0.503868 0.558846 0.195529
0.601877 0.567803 0.189883
0.698466 0.577447 0.185138
0.790204 0.587152 0.181903
0.879591 0.596765 0.180331
0.968582 0.606043 0.180789
1 0.613672 0.183017
0 0.526024 0.186236
0 0.543404 0.187945
0 0.561944 0.189914
0 0.580072 0.191455
0 0.597681 0.192523
0.0799115 0.614694 0.192874
0.176699 0.62887 0.191913
0.267185 0.640589 0.189502
0.359777 0.650477 0.185977
0.455344 0.658137 0.181323
0.554467 0.66479 0.176425
0.653727 0.671382 0.172198
0.749401 0.678019 0.16965
0.840848 0.685573 0.169406
0.928588 0.693049 0.171374
1 0.699825 0.175723
1 0.705684 0.182452
0 0.641978 0.171664
0 0.660426 0.17232
0 0.678599 0.173205
0 0.696925 0.174182
0.072343 0.714214 0.175418
0.158343 0.729793 0.176333
0.2392 0.743099 0.176455
0.322805 0.752865 0.175174
0.411414 0.75996 0.172869
0.50576 0.765377 0.170428
0.603677 0.768994 0.16759
0.701198 0.772183 0.165942
0.796094 0.776394 0.16672
0.884825 0.780926 0.169986
0.969924 0.78558 0.175906
1 0.790265 0.184497
1 0.793179 0.194812
0 0.75935 0.157961
0 0.776745 0.160098
0.0381018 0.794583 0.163012
0.108797 0.811307 0.166491
0.174166 0.826993 0.170199
0.238682 0.841123 0.173617
0.306584 0.851865 0.17586
0.381933 0.859236 0.176898
0.465797 0.864012 0.177005
0.555764 0.866209 0.176349
0.650431 0.86659 0.17583
0.746044 0.867231 0.177279
0.83772 0.867918 0.180835
0.923812 0.869566 0.187335
1 0.871977 0.196643
1 0.873823 0.207019
1 0.875257 0.218784
0.040238 0.873243 0.159716
0.113527 0.889479 0.165362
0.168017 0.90483 0.171557
0.21416 0.919631 0.178317
0.262135 0.933486 0.185214
0.313664 0.9449 0.191363
0.372549 0.953384 0.195895
0.440208 0.958236 0.198566
0.517571 0.959945 0.199985
0.602853 0.959274 0.200809
0.69366 0.956954 0.201953
0.785428 0.954345 0.204425
0.875334 0.952804 0.209598
0.960037 0.952529 0.216922
1 0.952987 0.226062
1 0.953918 0.237186
1 0.953964 0.248631
0.183825 0.981216 0.185702
0.227344 0.994553 0.194156
0.265782 1 0.203052
0.300618 1 0.21207
0.339162 1 0.220233
0.383413 1 0.227527
0.434409 1 0.23209
0.495979 1 0.234562
0.567849 1 0.235706
0.648585 1 0.235813
0.735958 1 0.236484
0.826078 1 0.239078
0.91368 1 0.243793
0.996963 1 0.25095
1 1 0.260288
1 1 0.270619
1 1 0.281712
0.288563 1 0.229709
0.324285 1 0.238743
0.355627 1 0.247196
0.385489 1 0.255146
0.41828 1 0.262592
0.45536 1 0.26833
0.50042 1 0.271977
0.555398 1 0.273671
0.620905 1 0.273762
0.69691 1 0.273487
0.780362 1 0.273823
0.866957 1 0.275761
0.952132 1 0.280262
1 1 0.287236
1 1 0.295872
1 1 0.305486
1 1 0.315724
0 0.000381476 0.0699626
0.00619516 0.00280766 0.0770886
0.0165713 0.00521859 0.0831922
0.0271305 0.00758373 0.0885176
0.04065 0.010071 0.0938735
0.058732 0.0123751 0.0985733
0.0844434 0.0144961 0.102693
0.116014 0.0166018 0.106569
0.150591 0.0188907 0.110399
0.187442 0.0218357 0.115053
0.225132 0.0254826 0.120562
0.261738 0.0300908 0.127291
0.297444 0.0357061 0.135302
0.333959 0.0417945 0.143404
0.372076 0.048249 0.151537
0.412909 0.0550393 0.159655
0.457435 0.0617838 0.167193
0 0.0213626 0.0895094
0 0.0235294 0.0940414
0.00875868 0.0258183 0.0986191
0.0197452 0.0281224 0.10309
0.0337682 0.0304417 0.107454
0.0524758 0.0328069 0.111711
0.078706 0.0349584 0.115358
0.112169 0.0370642 0.118669
0.148135 0.0396124 0.122393
0.186007 0.042649 0.126635
0.224567 0.04654 0.131914
0.262654 0.0516213 0.138659
0.301839 0.0576181 0.146105
0.341573 0.0644694 0.154025
0.382818 0.0719615 0.162112
0.426291 0.0797742 0.169818
