DcamVisualizer/Assets/Main/CameraLUT.cube
TITLE "Generated by Resolve"
LUT_3D_SIZE 5
0 0 0
0.0450752 0.0100252 0.0193484
0.152895 0.0192416 0.0363622
0.297353 0.0359503 0.0660563
0.453635 0.0618296 0.107515
0 0.0906081 0.0599069
0.0147555 0.102327 0.0802777
0.144717 0.113588 0.103212
0.339269 0.13727 0.134783
0.585061 0.175921 0.164965
0 0.2439 0.126497
0 0.282445 0.154269
0.193973 0.327352 0.174075
0.555291 0.378164 0.173877
0.914961 0.427649 0.157198
0 0.629999 0.118471
0.0540322 0.702525 0.117006
0.400229 0.750118 0.106371
0.785016 0.768902 0.0885634
1 0.788083 0.120394
0.277394 1 0.163439
0.409812 1 0.202777
0.614328 1 0.215045
0.946853 1 0.221851
1 1 0.262028
0 0.000488289 0.0981308
0.0387121 0.00991836 0.119783
0.149569 0.0187381 0.134432
0.297337 0.0355077 0.154986
0.458717 0.0618448 0.18497
0 0.090837 0.15639
0.00726329 0.103212 0.173312
0.14255 0.115846 0.190112
0.350729 0.142245 0.215076
0.613077 0.182925 0.245991
0 0.253773 0.21146
0 0.296498 0.243015
0.2159 0.344762 0.266743
0.589899 0.395697 0.271931
0.953567 0.44213 0.270848
0 0.654414 0.223438
0.0913558 0.72575 0.236454
0.42266 0.769558 0.239506
0.806531 0.783642 0.233707
1 0.798184 0.258732
0.300664 1 0.289693
0.426551 1 0.320851
0.627161 1 0.329152
0.958175 1 0.331548
1 1 0.362799
0 0 0.255177
0.0191196 0.00445563 0.271565
0.135393 0.0125124 0.279881
0.291829 0.0289769 0.288518
0.460624 0.0553902 0.313039
0 0.0844892 0.303563
0 0.0978256 0.31986
0.130007 0.112596 0.334951
0.360204 0.142657 0.362203
0.64094 0.185061 0.404318
0 0.260578 0.363119
0 0.307576 0.406622
0.233082 0.358801 0.444038
0.618952 0.407141 0.466239
0.98584 0.449699 0.490608
0 0.673182 0.423636
0.116228 0.741329 0.459251
0.437583 0.780987 0.477821
0.818708 0.789227 0.477821
1 0.799405 0.500938
0.318029 1 0.523415
0.43743 1 0.555718
0.633341 1 0.560723
0.961059 1 0.550057
1 1 0.568231
0 0 0.463096
0 0 0.476555
0.0943465 0 0.481193
0.27805 0.0132601 0.486946
0.462486 0.0389105 0.51458
0 0.068101 0.505989
0 0.0831464 0.52314
0.0971847 0.102846 0.543984
0.369268 0.136767 0.585138
0.67483 0.180407 0.649546
0 0.266224 0.59115
0 0.318013 0.653223
0.248905 0.370626 0.713344
0.64686 0.413153 0.761028
1 0.449577 0.816266
0 0.686687 0.731456
0.14136 0.750393 0.791272
0.450492 0.784573 0.826993
0.827375 0.78645 0.838483
1 0.790509 0.868635
0.34287 1 0.889677
0.454612 1 0.92694
0.641032 1 0.933074
0.962478 1 0.918669
1 1 0.93344
0 0 0.628382
0 0 0.640253
0.0390021 0 0.644007
0.269154 0 0.654658
0.474128 0.0249943 0.688777
0 0.0552834 0.671717
0 0.0733654 0.693919
0.0652628 0.0983597 0.72697
0.393362 0.136675 0.785214
0.721508 0.179843 0.86862
0 0.28101 0.795727
0 0.337682 0.876249
0.281514 0.389731 0.955444
0.684749 0.424475 1
1 0.452491 1
0 0.705592 1
0.186526 0.764523 1
0.476555 0.79263 1
0.847028 0.787884 1
1 0.786099 1
0.383062 1 1
0.487511 1 1
0.664057 1 1
0.978454 1 1
1 1 1
