DcamVisualizer/Assets/Main/CameraLUT.cube
TITLE "Generated by Resolve"
LUT_3D_SIZE 9
0 0 0
0.0212558 0.00500496 0.00967422
0.0450752 0.0100252 0.0193484
0.088365 0.0146944 0.0281987
0.152895 0.0192416 0.0363622
0.226459 0.0258488 0.0480049
0.297353 0.0359503 0.0660563
0.370153 0.0484169 0.087892
0.453635 0.0618296 0.107515
0 0.0417792 0.0298924
0.00640879 0.0460517 0.0381933
0.0322271 0.0507362 0.0471962
0.078233 0.0555123 0.0561227
0.148943 0.0607156 0.0652781
0.226444 0.0682536 0.0786908
0.308263 0.0807965 0.0977035
0.393957 0.0966506 0.117021
0.49102 0.11249 0.134234
0 0.0906081 0.0599069
0 0.0961013 0.069276
0.0147555 0.102327 0.0802777
0.0643626 0.108248 0.0918441
0.144717 0.113588 0.103212
0.236866 0.122438 0.117388
0.339269 0.13727 0.134783
0.451667 0.156008 0.151797
0.585061 0.175921 0.164965
0 0.152956 0.0933394
0 0.160204 0.105272
0 0.169665 0.118715
0.0383612 0.180697 0.131838
0.150271 0.193027 0.144106
0.278309 0.208972 0.156939
0.421485 0.230701 0.169696
0.576532 0.256123 0.178408
0.746548 0.279866 0.179843
0 0.2439 0.126497
0 0.261189 0.13994
0 0.282445 0.154269
0.0219883 0.305043 0.166415
0.193973 0.327352 0.174075
0.369909 0.351339 0.176562
0.555291 0.378164 0.173877
0.73521 0.404883 0.167315
0.914961 0.427649 0.157198
0 0.405295 0.148135
0 0.436622 0.156374
0 0.471214 0.162554
0.101823 0.503532 0.163973
0.297154 0.528679 0.157992
0.490272 0.548852 0.144747
0.683925 0.568383 0.128786
0.865263 0.588998 0.118318
1 0.606546 0.116381
0 0.629999 0.118471
0 0.666407 0.117418
0.0540322 0.702525 0.117006
0.227039 0.732204 0.114702
0.400229 0.750118 0.106371
0.592554 0.76025 0.0946059
0.785016 0.768902 0.0885634
0.959884 0.7794 0.0977188
1 0.788083 0.120394
0.0198672 0.862013 0.0837262
0.153658 0.894514 0.0967422
0.251041 0.924254 0.112825
0.363043 0.945327 0.124819
0.509239 0.952819 0.12813
0.686076 0.950988 0.129015
0.867948 0.947936 0.137591
1 0.94876 0.157641
1 0.950301 0.184619
0.277394 1 0.163439
0.345983 1 0.184405
0.409812 1 0.202777
0.492927 1 0.213703
0.614328 1 0.215045
0.774304 1 0.214435
0.946853 1 0.221851
1 1 0.239399
1 1 0.262028
0 0.000411994 0.0407721
0.0181125 0.00512703 0.0591592
0.0421149 0.0099794 0.0694591
0.0857862 0.0145113 0.078996
0.151385 0.018967 0.0881819
0.225513 0.0254978 0.0996262
0.297307 0.0356909 0.115587
0.371374 0.0483101 0.13315
0.456077 0.0617533 0.149615
0 0.0415961 0.080415
0.00318914 0.0459144 0.0889906
0.0292515 0.0505074 0.0973678
0.0756085 0.0553292 0.105699
0.14757 0.0604562 0.113939
0.225864 0.0682841 0.125444
0.309545 0.0813764 0.140871
0.396933 0.0972763 0.157534
0.495781 0.113527 0.172992
0 0.0907607 0.109148
0 0.0963149 0.117235
0.0115663 0.102861 0.126741
0.061677 0.109026 0.136202
0.143847 0.114748 0.145571
0.238514 0.124208 0.157671
0.344747 0.139681 0.173312
0.461112 0.159228 0.189715
0.598352 0.17937 0.20264
0 0.154025 0.137362
0 0.161746 0.147753
0 0.172107 0.160433
0.0374609 0.184009 0.172946
0.153429 0.19704 0.18468
0.285878 0.214038 0.197055
0.433768 0.236622 0.209537
0.593088 0.262379 0.218997
0.765759 0.285954 0.222477
0 0.248798 0.167483
0 0.266987 0.180545
0 0.289204 0.195117
0.027512 0.312779 0.207965
0.204349 0.335683 0.215915
0.384161 0.360372 0.219181
0.57229 0.386938 0.217914
0.753323 0.41297 0.214221
0.934218 0.434897 0.208652
0 0.415366 0.190066
0 0.447379 0.198489
0 0.482597 0.205783
0.11809 0.514977 0.209125
0.309987 0.539391 0.205341
0.503868 0.558846 0.195529
0.698466 0.577447 0.185138
0.879591 0.596765 0.180331
1 0.613672 0.183017
0 0.641978 0.171664
0 0.678599 0.173205
0.072343 0.714214 0.175418
0.2392 0.743099 0.176455
0.411414 0.75996 0.172869
0.603677 0.768994 0.16759
0.796094 0.776394 0.16672
0.969924 0.78558 0.175906
1 0.793179 0.194812
0.040238 0.873243 0.159716
0.168017 0.90483 0.171557
0.262135 0.933486 0.185214
0.372549 0.953384 0.195895
0.517571 0.959945 0.199985
0.69366 0.956954 0.201953
0.875334 0.952804 0.209598
1 0.952987 0.226062
1 0.953964 0.248631
0.288563 1 0.229709
0.355627 1 0.247196
0.41828 1 0.262592
0.50042 1 0.271977
0.620905 1 0.273762
0.780362 1 0.273823
0.952132 1 0.280262
1 1 0.295872
1 1 0.315724
0 0.000488289 0.0981308
0.0146181 0.00521859 0.109895
0.0387121 0.00991836 0.119783
0.0826734 0.0143587 0.127993
0.149569 0.0187381 0.134432
0.224491 0.0252384 0.142473
0.297337 0.0355077 0.154986
0.372854 0.0482032 0.170092
0.458717 0.0618448 0.18497
0 0.0413519 0.129915
0 0.0454414 0.137346
0.0254673 0.0501869 0.145281
0.0721141 0.0550393 0.152407
0.145678 0.0602121 0.158434
0.22533 0.0682994 0.166644
0.310994 0.0818341 0.1794
0.400107 0.0981613 0.194583
0.501106 0.114641 0.209445
0 0.090837 0.15639
0 0.0964523 0.16408
0.00726329 0.103212 0.173312
0.057847 0.109667 0.182162
0.14255 0.115846 0.190112
0.240421 0.126116 0.200626
0.350729 0.142245 0.215076
0.471107 0.162417 0.231769
0.613077 0.182925 0.245991
0 0.155047 0.1823
0 0.163439 0.193118
0 0.174746 0.20647
0.0358129 0.187686 0.219837
0.156863 0.201526 0.2318
0.293858 0.219364 0.24416
0.446891 0.242649 0.257084
0.610147 0.268513 0.268269
0.785916 0.292058 0.274998
0 0.253773 0.21146
0 0.273228 0.226505
0 0.296498 0.243015
0.0335699 0.32105 0.257557
0.2159 0.344762 0.266743
0.399039 0.369604 0.271183
0.589899 0.395697 0.271931
0.771099 0.42063 0.271412
0.953567 0.44213 0.270848
0 0.425528 0.235142
0 0.458686 0.246601
0 0.494255 0.257191
0.132586 0.526085 0.263447
0.322881 0.550362 0.262135
0.517555 0.568841 0.25452
0.712901 0.586419 0.247257
0.894377 0.604654 0.24625
1 0.620569 0.252033
0 0.654414 0.223438
0 0.69073 0.229343
0.0913558 0.72575 0.236454
0.25156 0.753277 0.24097
0.42266 0.769558 0.239506
0.614466 0.77734 0.234516
0.806531 0.783642 0.233707
0.979828 0.791714 0.24213
1 0.798184 0.258732
0.0619059 0.884306 0.224048
0.182116 0.91487 0.23801
0.273594 0.942367 0.253086
0.381674 0.960906 0.263828
0.525429 0.966583 0.266285
0.700938 0.9626 0.265415
0.881941 0.957259 0.269673
1 0.956985 0.283757
1 0.957382 0.303319
0.300664 1 0.289693
0.365286 1 0.30605
0.426551 1 0.320851
0.507607 1 0.329305
0.627161 1 0.329152
0.786557 1 0.327214
0.958175 1 0.331548
1 1 0.345083
1 1 0.362799
0 0 0.164858
0.00823987 0.00390631 0.174716
0.0321965 0.00848402 0.183612
0.0759594 0.0127718 0.190539
0.145251 0.0170748 0.194888
0.221576 0.0234989 0.199695
0.295979 0.0337835 0.208576
0.373159 0.0465705 0.221363
0.460456 0.0602426 0.234928
0 0.0397803 0.193011
0 0.0437324 0.199817
0.0184482 0.0484779 0.207248
0.0651713 0.0532998 0.213489
0.140978 0.0584268 0.2177
0.222934 0.066804 0.223468
0.311269 0.0804608 0.234073
0.40264 0.0975967 0.248341
0.506432 0.114534 0.263416
0 0.0893111 0.217823
0 0.095079 0.225284
0 0.102037 0.234241
0.05037 0.108736 0.242603
0.138872 0.115557 0.249729
0.241291 0.126772 0.259617
0.356313 0.143725 0.274311
0.480949 0.16437 0.29218
0.627268 0.185245 0.308919
0 0.15491 0.242222
0 0.164004 0.253513
0 0.176242 0.267857
0.0310521 0.19028 0.282826
0.158602 0.205097 0.29604
0.301228 0.223682 0.30956
0.459846 0.247532 0.324269
0.626734 0.27332 0.338582
0.804944 0.296605 0.349981
0 0.257954 0.272786
0 0.278523 0.290211
0 0.302983 0.309361
0.0373846 0.328344 0.32639
0.226032 0.352804 0.33817
0.412818 0.377508 0.345235
0.605631 0.402869 0.349676
0.787991 0.426902 0.353979
0.971191 0.447547 0.359457
0 0.435035 0.301869
0 0.468956 0.31722
0 0.504662 0.332082
0.144457 0.536004 0.34229
0.333898 0.559533 0.34464
0.529213 0.57702 0.340719
0.725139 0.593179 0.337621
0.906706 0.61059 0.341161
1 0.625223 0.350591
0 0.665278 0.302373
0 0.701076 0.313588
0.1066 0.735332 0.325841
0.261738 0.761975 0.334524
0.431754 0.777111 0.335775
0.623041 0.783566 0.332158
0.814084 0.788113 0.331441
0.987289 0.795422 0.339788
1 0.800855 0.354452
0.0806897 0.893156 0.317968
0.194171 0.922667 0.334783
0.282216 0.948775 0.351644
0.388586 0.966506 0.363119
0.531258 0.970871 0.364553
0.705806 0.96585 0.360876
0.886488 0.959701 0.361532
1 0.958785 0.372137
1 0.958648 0.388373
0.310323 1 0.380835
0.373083 1 0.397345
0.432151 1 0.411673
0.512947 1 0.419791
0.631586 1 0.417792
0.790356 1 0.412436
0.961563 1 0.412787
1 1 0.422797
1 1 0.43714
0 0 0.255177
0 0.000106813 0.263676
0.0191196 0.00445563 0.271565
0.0624094 0.00851453 0.277363
0.135393 0.0125124 0.279881
0.214527 0.0188907 0.282322
0.291829 0.0289769 0.288518
0.371298 0.0416114 0.299748
0.460624 0.0553902 0.313039
0 0.0355077 0.280201
0 0.0395666 0.286702
0.00447089 0.0440223 0.293629
0.0508431 0.0487678 0.299184
0.130526 0.0538643 0.302068
0.216892 0.0623636 0.306004
0.308995 0.0763714 0.315419
0.403311 0.0939956 0.32961
0.511604 0.111772 0.346471
0 0.0844892 0.303563
0 0.0906233 0.311055
0 0.0978256 0.31986
0.035584 0.104891 0.327947
0.130007 0.112596 0.334951
0.23949 0.124697 0.345541
0.360204 0.142657 0.362203
0.489784 0.163912 0.383001
0.64094 0.185061 0.404318
0 0.152407 0.327382
0 0.162448 0.339712
0 0.175662 0.356008
0.0193027 0.190494 0.373068
0.156054 0.206439 0.389044
0.306569 0.225849 0.405539
0.471656 0.250217 0.424353
0.642557 0.275792 0.444068
0.822202 0.298268 0.461997
0 0.260578 0.363119
0 0.282094 0.383719
0 0.307576 0.406622
0.0356451 0.333791 0.427695
0.233082 0.358801 0.444038
0.424521 0.383108 0.456001
0.618952 0.407141 0.466239
0.801938 0.430228 0.477302
0.98584 0.449699 0.490608
0 0.442512 0.403586
0 0.476936 0.424308
0 0.512505 0.444968
0.151858 0.543282 0.460868
0.341115 0.565744 0.468376
0.537652 0.582025 0.469871
0.733989 0.596735 0.472313
0.915969 0.61294 0.481544
1 0.626245 0.495415
0 0.673182 0.423636
0 0.708247 0.44123
0.116228 0.741329 0.459251
0.268742 0.767071 0.472969
0.437583 0.780987 0.477821
0.628122 0.786114 0.476753
0.818708 0.789227 0.477821
0.990967 0.795117 0.486931
1 0.799405 0.500938
0.0965591 0.898268 0.458732
0.204013 0.926513 0.478828
0.288991 0.951415 0.4981
0.393652 0.968048 0.511208
0.534188 0.971237 0.512673
0.707103 0.964874 0.50753
0.887373 0.957992 0.506355
1 0.95642 0.514961
1 0.95581 0.52871
0.318029 1 0.523415
0.379492 1 0.540703
0.43743 1 0.555718
0.515984 1 0.563821
0.633341 1 0.560723
0.790158 1 0.552529
0.961059 1 0.550057
1 1 0.557107
1 1 0.568231
0 0 0.360967
0 0 0.368566
0 0 0.375647
0.0403296 0.00167849 0.380499
0.118135 0.00547799 0.381781
0.20238 0.0116274 0.382513
0.2851 0.0214542 0.387732
0.368292 0.0338598 0.398825
0.460578 0.0474403 0.412894
0 0.0287633 0.38378
0 0.0327001 0.389944
0 0.0370031 0.39649
0.0277256 0.0415656 0.401404
0.111925 0.0468452 0.403586
0.207034 0.0555276 0.407141
0.30518 0.0697337 0.416861
0.403845 0.087953 0.432288
0.518532 0.106401 0.452628
0 0.0765393 0.406043
0 0.0831159 0.41352
0 0.0906996 0.422354
0.012665 0.0986038 0.430808
0.115175 0.107637 0.439094
0.235416 0.120699 0.452262
0.363424 0.139452 0.472236
0.500008 0.161501 0.497993
0.656184 0.182727 0.525353
0 0.148287 0.430716
0 0.159518 0.445075
0 0.173999 0.464591
0.000793469 0.189837 0.484886
0.150149 0.206683 0.504509
0.311437 0.226795 0.525536
0.483574 0.251087 0.54992
0.659297 0.276585 0.57702
0.839765 0.298024 0.602533
0 0.262654 0.475929
0 0.285328 0.50071
0 0.311955 0.528405
0.0304417 0.339071 0.554818
0.239155 0.363958 0.576837
0.435843 0.387488 0.595239
0.631586 0.409689 0.612253
0.81561 0.431556 0.631281
0.999557 0.449683 0.652857
0 0.449729 0.532876
0 0.484138 0.559808
0 0.518807 0.586633
0.157046 0.549233 0.609308
0.347051 0.570504 0.622889
0.54519 0.585184 0.63061
0.742321 0.598215 0.639261
0.923934 0.61297 0.654505
1 0.62475 0.673426
0 0.679484 0.576364
0 0.71371 0.600793
0.125795 0.745434 0.624765
0.275593 0.770047 0.643763
0.442588 0.782528 0.652552
0.632227 0.786053 0.654643
0.822126 0.787762 0.658488
0.993301 0.792172 0.669673
1 0.795071 0.684749
0.11368 0.90103 0.633417
0.214923 0.927932 0.657191
0.297246 0.951385 0.679316
0.398581 0.966751 0.694484
0.536507 0.968826 0.696956
0.708202 0.961166 0.691966
0.887404 0.953521 0.690822
1 0.951141 0.698955
1 0.949813 0.711788
0.328481 1 0.705287
0.388235 1 0.72372
0.443839 1 0.7402
0.519814 1 0.748974
0.635248 1 0.745571
0.790417 1 0.736156
0.960006 1 0.731991
1 1 0.737606
1 1 0.747204
0 0 0.463096
0 0 0.470008
0 0 0.476555
0.0130007 0 0.480705
0.0943465 0 0.481193
0.187472 0.00357061 0.481041
0.27805 0.0132601 0.486946
0.366247 0.0254673 0.499046
0.462486 0.0389105 0.51458
0 0.0210574 0.484291
0 0.0249332 0.490227
0 0.0292515 0.496574
0 0.0337072 0.501137
0.0873426 0.0390173 0.503304
0.196124 0.0482948 0.507958
0.302007 0.0627909 0.51902
0.406683 0.0814679 0.536889
0.52874 0.100511 0.561944
0 0.068101 0.505989
0 0.074464 0.513558
0 0.0831464 0.52314
0 0.0924392 0.533043
0.0971847 0.102846 0.543984
0.232181 0.117082 0.561013
0.369268 0.136767 0.585138
0.513832 0.159426 0.616251
0.67483 0.180407 0.649546
0 0.144778 0.533684
0 0.157244 0.551247
0 0.173098 0.574304
0 0.190433 0.59881
0.145144 0.20827 0.622736
0.319722 0.229007 0.648936
0.499352 0.253086 0.679271
0.678767 0.277653 0.713085
0.859785 0.297993 0.74551
0 0.266224 0.59115
0 0.290379 0.620661
0 0.318013 0.653223
0.0284581 0.34609 0.685557
0.248905 0.370626 0.713344
0.449317 0.392477 0.737438
0.64686 0.413153 0.761028
0.831556 0.433341 0.787259
1 0.449577 0.816266
0 0.458671 0.665934
0 0.49279 0.698772
0 0.526818 0.731548
0.164691 0.556176 0.760006
0.3561 0.576074 0.779293
0.554589 0.588693 0.792187
0.752728 0.600244 0.806729
0.934127 0.613077 0.827253
1 0.623041 0.850919
0 0.686687 0.731456
0 0.71986 0.761913
0.14136 0.750393 0.791272
0.285985 0.773709 0.814755
0.450492 0.784573 0.826993
0.638361 0.786099 0.831678
0.827375 0.78645 0.838483
0.997681 0.789288 0.852079
1 0.790509 0.868635
0.136721 0.904005 0.808454
0.230488 0.929183 0.835309
0.308904 0.951705 0.860502
0.407019 0.965591 0.877546
0.542046 0.966491 0.881178
0.711711 0.957885 0.877012
0.890135 0.949355 0.876585
1 0.946151 0.885237
1 0.943893 0.897826
0.34287 1 0.889677
0.400198 1 0.909163
0.454612 1 0.92694
0.528359 1 0.936522
0.641032 1 0.933074
0.794049 1 0.923339
0.962478 1 0.918669
1 1 0.924041
1 1 0.93344
0 0 0.549157
0 0 0.555596
0 0 0.561715
0 0 0.565408
0.0670329 0 0.565438
0.174014 0 0.565942
0.272816 0.00614939 0.572885
0.366598 0.0183261 0.586526
0.467216 0.0317998 0.6038
0 0.0140383 0.569223
0 0.0178531 0.575067
0 0.0221714 0.581338
0 0.0267033 0.586038
0.062623 0.0326238 0.589426
0.187121 0.0424811 0.595605
0.30132 0.0574197 0.608484
0.413321 0.0763561 0.629923
0.543282 0.0962081 0.659922
0 0.0610971 0.59115
0 0.0681926 0.599771
0 0.0774548 0.610636
0 0.0883497 0.622278
0.0803388 0.0999008 0.636927
0.232258 0.115572 0.658
0.379492 0.136187 0.686519
0.531868 0.159167 0.722606
0.697185 0.179751 0.7608
0 0.143694 0.624186
0 0.157458 0.645518
0 0.174624 0.672099
0 0.193484 0.70071
0.145922 0.212451 0.729183
0.333181 0.233692 0.760266
0.519646 0.257313 0.795758
0.701152 0.280552 0.834684
0.882307 0.299596 0.872602
0 0.272541 0.694591
0 0.298116 0.72845
0 0.327153 0.766171
0.0355383 0.355673 0.80354
0.263722 0.379812 0.836179
0.46627 0.39971 0.864591
0.664851 0.418509 0.892897
0.850629 0.436835 0.925216
1 0.45095 0.95996
0 0.469673 0.785016
0 0.503258 0.822568
0 0.536858 0.860533
0.178241 0.565194 0.893629
0.369055 0.583688 0.91751
0.568414 0.594568 0.934585
0.766506 0.604242 0.953338
0.947356 0.615015 0.97789
1 0.622736 1
0 0.695827 0.868666
0.0151064 0.727413 0.903349
0.162722 0.757198 0.937224
0.300984 0.779202 0.964126
0.462272 0.788373 0.978653
0.648463 0.788449 0.985748
0.836255 0.786923 0.9944
1 0.788174 1
1 0.788113 1
0.162356 0.908797 0.961288
0.249943 0.932616 0.990555
0.325002 0.953841 1
0.419593 0.966583 1
0.551705 0.965911 1
0.71989 0.956634 1
0.897124 0.947326 1
1 0.943404 1
1 0.940536 1
0.361776 1 1
0.4177 1 1
0.469718 1 1
0.54139 1 1
0.651026 1 1
0.802182 1 1
0.969146 1 1
1 1 1
1 1 1
0 0 0.628382
0 0 0.634531
0 0 0.640253
0 0 0.643748
0.0390021 0 0.644007
0.161257 0 0.64625
0.269154 0 0.654658
0.368704 0.0116426 0.669749
0.474128 0.0249943 0.688777
0 0.00694286 0.647684
0 0.0107729 0.653483
0 0.015198 0.660121
0 0.0203555 0.66627
0.0393072 0.0268864 0.671229
0.179416 0.0373846 0.679133
0.302846 0.0528115 0.694133
0.423499 0.0719005 0.720256
0.560769 0.092195 0.754879
0 0.0552834 0.671717
0 0.0631876 0.681575
0 0.0733654 0.693919
0 0.0856641 0.708003
0.0652628 0.0983597 0.72697
0.234867 0.114992 0.751614
0.393362 0.136675 0.785214
0.552651 0.159945 0.82594
0.721508 0.179843 0.86862
0 0.144137 0.711772
0 0.159442 0.737133
0 0.178134 0.767391
0 0.198276 0.800137
0.152148 0.218326 0.833173
0.349783 0.239597 0.868681
0.542702 0.262592 0.909224
0.725078 0.28426 0.952331
0.90663 0.301442 0.995483
0 0.28101 0.795727
0 0.307851 0.834028
0 0.337682 0.876249
0.051606 0.366537 0.918486
0.281514 0.389731 0.955444
0.485267 0.407691 0.98764
0.684749 0.424475 1
0.871168 0.440803 1
1 0.452491 1
0 0.481605 0.900465
0 0.514519 0.942184
0 0.547585 0.98471
0.195911 0.574929 1
0.384466 0.591791 1
0.584085 0.600946 1
0.782315 0.60856 1
0.962524 0.617258 1
1 0.622766 1
0 0.705592 1
0.0483864 0.736034 1
0.186526 0.764523 1
0.318471 0.785077 1
0.476555 0.79263 1
0.660761 0.791211 1
0.847028 0.787884 1
1 0.787305 1
1 0.786099 1
0.190738 0.913695 1
0.271992 0.936294 1
0.343374 0.956268 1
0.43537 0.968032 1
0.56437 0.96643 1
0.730083 0.956268 1
0.906722 0.945907 1
1 0.940948 1
1 0.937713 1
0.383062 1 1
0.437186 1 1
0.487511 1 1
0.55671 1 1
0.664057 1 1
0.813199 1 1
0.978454 1 1
1 1 1
1 1 1
